britbox.svg

<svg viewBox="0 0 24 24" xmlns="http://www.w3.org/2000/svg"><path d="M24 9.79849L23.4589 9.39375L22.228 11.0361L20.9974 9.39375L20.4562 9.79849L21.8057 11.5995L20.4562 13.4008L20.9974 13.8055L22.228 12.1631L23.4589 13.8055L24 13.4008L22.6503 11.5995L24 9.79849" fill="#c0555b"/><path d="M7.318 8.00675L7.80191 7.52029L8.28587 8.00675L7.80191 8.49314L7.318 8.00675M2.1534 13.0945C1.35305 13.0945 0.702001 12.4392 0.702001 11.634C0.702001 10.8287 1.35305 10.1735 2.1534 10.1735C2.95374 10.1735 3.60493 10.8286 3.60493 11.634C3.60493 12.4392 2.95431 13.0945 2.1533 13.0945M2.15332 9.49175C1.73483 9.49175 1.35933 9.64131 0.996154 9.78717C0.943428 9.80833 0.890846 9.8292 0.838288 9.84986L0.680397 9.9113L0.680397 7.65866L0.186729 7.65866C0.0834395 7.65887-0.000144139 7.74288 1.86627e-07 7.84638L1.86627e-07 11.6027C1.86627e-07 11.9542 0.0728172 12.2799 0.215544 12.5707C0.581529 13.3073 1.33119 13.7739 2.15255 13.7762C3.32794 13.7762 4.28434 12.8152 4.28434 11.634C4.28432 10.4527 3.32885 9.49175 2.15332 9.49175M5.37514 10.101L5.37514 9.49253L4.88051 9.49253C4.77713 9.49256 4.69332 9.57648 4.69323 9.68009L4.69323 13.7809L5.38329 13.7809L5.38329 11.5773C5.42579 10.7964 6.06578 10.1787 6.8403 10.1677L7.06138 10.1645L7.06138 9.49205L6.82978 9.49424C6.29157 9.50172 5.77564 9.71867 5.37497 10.1009M10.2769 12.8444C10.1479 12.7633 10.0528 12.6382 10.009 12.4922C9.97755 12.3927 9.97755 12.2923 9.97755 12.1856L9.97755 10.1722L11.2274 10.1722L11.2274 9.4928L9.97712 9.4928L9.97712 7.65866L9.48473 7.65866C9.38193 7.65904 9.29873 7.74247 9.29851 7.84539L9.29851 9.49321L8.54582 9.49321L8.54582 10.1727L9.29851 10.1727L9.29851 12.3237C9.29851 12.3983 9.31626 13.0629 9.9291 13.4284C10.4001 13.7093 10.9468 13.8362 10.9699 13.8415L11.185 13.8912L11.3361 13.2284L11.121 13.1787C11.1013 13.1742 10.6398 13.0655 10.2769 12.8444M8.14199 9.49253L7.64736 9.49253C7.54398 9.49256 7.46018 9.57648 7.46008 9.68009L7.46008 13.7809L8.14199 13.7809M13.7302 13.0569C12.9288 13.0569 12.2769 12.4023 12.2769 11.5978C12.2769 10.7933 12.9288 10.1387 13.7302 10.1387C14.5315 10.1387 15.1836 10.7932 15.1836 11.5978C15.1836 12.4023 14.5321 13.057 13.7301 13.057M13.7301 9.45757C13.3111 9.45757 12.9351 9.60699 12.5715 9.75271C12.5187 9.77385 12.466 9.79471 12.4134 9.81534L12.2553 9.87673L12.2553 7.62618L11.761 7.62618C11.6576 7.62639 11.5739 7.71032 11.574 7.81372L11.574 11.5666C11.574 11.9177 11.6469 12.2431 11.7898 12.5336C12.1563 13.2696 12.9069 13.7357 13.7293 13.738C14.9062 13.738 15.8639 12.778 15.8639 11.5978C15.8638 10.4177 14.9071 9.45757 13.7301 9.45757" fill="#4c97a6"/><path d="M18.412 9.45756C17.235 9.45756 16.2704 10.4187 16.2704 11.6001C16.2704 12.7815 17.2347 13.7427 18.4116 13.7427C19.5885 13.7427 20.5536 12.7815 20.5536 11.6001C20.5536 10.4187 19.589 9.45756 18.412 9.45756ZM18.412 10.1394C19.2134 10.1394 19.8733 10.7946 19.8733 11.6001C19.8733 12.4055 19.2136 13.0609 18.4116 13.0609C17.6095 13.0609 16.9507 12.4055 16.9507 11.6001C16.9507 10.7946 17.6106 10.1394 18.412 10.1394Z" fill="#eb123f"/></svg>

<svg viewBox="0 0 24 24" xmlns="http://www.w3.org/2000/svg"><path d="m24 9.798-.541-.404-1.231 1.642-1.23-1.642-.542.404 1.35 1.802-1.35 1.8.541.405 1.231-1.642 1.23 1.643L24 13.4 22.65 11.6 24 9.798" fill="#c0555b"/><path d="m7.318 8.007.484-.487.484.487-.484.486-.484-.486m-5.165 5.088c-.8 0-1.451-.656-1.451-1.461s.651-1.46 1.451-1.46 1.452.655 1.452 1.46c0 .805-.65 1.46-1.452 1.46m0-3.602c-.418 0-.794.15-1.157.295l-.158.063-.158.061V7.66H.187A.187.187 0 0 0 0 7.846v3.757c0 .351.073.677.216.968a2.17 2.17 0 0 0 1.937 1.205 2.14 2.14 0 0 0 2.131-2.142 2.139 2.139 0 0 0-2.13-2.142m3.221.609v-.608h-.494a.188.188 0 0 0-.188.187v4.1h.69v-2.203a1.489 1.489 0 0 1 1.457-1.41l.221-.002v-.673l-.231.002a2.151 2.151 0 0 0-1.455.607m4.902 2.743a.63.63 0 0 1-.268-.352c-.031-.1-.031-.2-.031-.306v-2.014h1.25v-.68h-1.25V7.66h-.493a.187.187 0 0 0-.186.186v1.648h-.753v.68h.753v2.15c0 .075.017.74.63 1.105.471.281 1.018.408 1.04.413l.216.05.151-.663-.215-.05a3.283 3.283 0 0 1-.844-.334M8.142 9.493h-.495a.188.188 0 0 0-.187.187v4.1h.682m5.588-.723a1.458 1.458 0 0 1-1.453-1.46c0-.804.652-1.458 1.453-1.458s1.454.654 1.454 1.459c0 .804-.652 1.459-1.454 1.459m0-3.6c-.419 0-.795.15-1.159.296l-.158.062-.158.062v-2.25h-.494a.187.187 0 0 0-.187.187v3.753c0 .35.073.676.216.967a2.173 2.173 0 0 0 1.94 1.204 2.14 2.14 0 0 0 0-4.28" fill="#4c97a6"/><path d="M18.412 9.458A2.147 2.147 0 0 0 16.27 11.6c0 1.181.965 2.143 2.142 2.143a2.147 2.147 0 0 0 2.142-2.143 2.147 2.147 0 0 0-2.142-2.142Zm0 .681c.801 0 1.461.656 1.461 1.461 0 .806-.66 1.46-1.461 1.46-.802 0-1.461-.655-1.461-1.46 0-.805.66-1.46 1.461-1.46Z" fill="#eb123f"/></svg>
